X: 403
T: Bir Nim-nigah
C: Ali Paşa (Efrasiyaboğlu)
O: Turkey
F: http://compmusic.upf.edu/node/140
N: saba--beste--muhammes--bir_nim-nigah--efrasiyaboglu_ali_pasa
N: makam= saba
N: form= beste
N: usul= muhammes = 32/4
M: 32/4
L: 1/16
K: C _2/4B _3/4d  
Q: 1/4=69
%%MIDI tuningsystem comma53
z4 A2 _1/4B2 c6 _7/8d2  | _7/8d2 c4 _1/4B2 z2 c4 e2  | \
w:   |   | 
_7/8d3 c _1/4B2 d2 c2 d2 c2 B2  | \
w:   | 
c2 e2 _7/8d2 c2 _1/4B4 A4  | 
w:   | 
A2 _1/4B2 c2 B2 _7/8d2 c2 e2 d2  | \
w:   | 
z2 c4 _1/4B2 B2 c2 B2 A2  | A2 z2 _1/4B2 A2 G2 A2 B2 c2  | 
w:   |   | 
_1/4B2 c4 B A A8  | z4 _1/4B2 c2 =d2 e2 d2 c2  | \
w:   |   | 
=d2 c2 d4 z2 c4 d2  | e2 f4 e2 e2 _7/8d2 d2 c2  | 
w:   |   | 
z2 c4 _7/8d2 d2 c4 _1/4B2  | A2 _1/4B2 G4 z2 A4 B2  | \
w:   |   | 
c2 _7/8d2 e2 f2 g2 f2 e2 d2  | _7/8d2 c2 c2 _1/4B2 A2 z2 e2 d2  | 
w:   |   | 
_7/8d2 c2 _1/4B2 c2 c6 z2  | z4 _1/4B2 c2 _7/8d2 e2 d2 c2  | \
w:   |   | 
_7/8d2 c2 d2 e2 e2 f2 e2 d2  | 
w:   | 
c2 _1/4B2 c8 c2 _7/8d2  | _7/8d2 c4 d2 c _1/4B A2 B2 c2  | \
w:   |   | 
_1/4B6 z2 _7/8d2 c2 c2 B2  | _1/4B2 A4 _7/8B2 A ^G ^1/4F2 G2 A2  | 
w:   |   | 
^G2 z2 A2 _1/4B2 A4 B2 c2  | _1/4B2 _7/8d2 c2 B2 c3 B A4  | \
w:   |   | 
z4 _1/4B2 c2 =d2 e2 d2 c2  | 
w:   | 
=d2 c2 d4 z2 c4 d2  | e2 f4 e2 e2 _7/8d2 d2 c2  | \
w:   |   | 
z2 c4 _7/8d2 d2 c4 _1/4B2  | A2 _1/4B2 G4 z2 c2 _7/8d2 d2  | 
w:   |   | 
c4 _1/4B2 B4 A4 A2  | z2 _1/4B2 A2 G4 A2 B2 A2  | \
w:   |   | 
c4 _1/4B A A8 z4 c2 _7/8d2 e4 e4 e2  | 
w:   | 
^f2 =d4 g2 f2 g2 a2 a2  | g2 ^f2 e2 e8 z2  | \
w:   |   | 
g2 ^f2 e2 =d2 ^c2 d2 e2 d8 z2 c4 d2 e2  | 
w:   | 
f4 e2 e2 _7/8d2 d2 c2 d3 c _1/4B2 c2 B2 c2 d2 c2 c12 z4 z4 e2 f2 e2 =d2 d2 ^c2 d8 d4 g4 g2  | 
w:   | 
f2 f2 e2 e2 =d2 d2 ^c2 c2  | _7/8B2 B2 A2 A6 z2 ^f12 g2 f e =d8 d4 a4 g3 f ^e2 f2 e2 f2 g2 f2 f12 z4 z4 =e2 f2 g6 f2 g2  | 
w:   |   | 
^f2 g2 a2 a2 g2 f2 e2 e2  | z2 c2 =d2 e2 f2 e2 d2 e2  | \
w:   |   | 
=d2 d2 c2 d8 d4 z4 f2 e2 e2 d2 d2  | 
w:   | 
^c2 _7/8B2 A2 A ^G ^1/4F2 G2 A2 G2  | \
w:   | 
z2 A2 _1/4B2 A4 B2 c2 B2  | _7/8d2 c2 _1/4B2 c3 B A4 z4 B2 c2 =d2 e2 d2 c2 d2  | 
w:   |   | 
c2 =d4 z2 c4 d2 e2  | f4 e2 e2 _7/8d2 d2 c2 z2  | \
w:   |   | 
c4 _7/8d2 d2 c2 c2 _1/4B2 A2  | _1/4B2 G4 =d2 e2 d2 c2 c2  | 
w:   |   | 
_7/8d2 c2 _1/4B2 B4 A4 A2  | z2 _1/4B2 A2 G4 A2 B2 A2  | \
w:   |   | 
c4 _1/4B A A6 z2 z4 A2 B2 c6 _7/8d2 d2  | 
w:   | 
c4 _1/4B2 z2 c4 e2 _7/8d3 c B2 d2 c2 d2 c2 B2 c2  | \
w:   | 
e2 _7/8d2 c2 _1/4B4 A4 A2  | _1/4B2 c2 B2 _7/8d2 c2 e2 d2 z2  | 
w:   |   | 
c4 _1/4B2 B2 c2 B2 A2 A2  | z2 _1/4B2 A2 G2 A2 B2 c2 B2  | \
w:   |   | 
c4 _1/4B A A8 z4 B2 c2 =d2 e2 d2 c2 d2  | 
w:   | 
c2 =d4 z2 c4 d2 e2  | f4 e2 e2 _7/8d2 d2 c2 z2  | \
w:   |   | 
c4 _7/8d2 d2 c4 _1/4B2 A2  | _1/4B2 G4 z2 A4 B2 c2  | 
w:   |   | 
_7/8d2 e2 f2 g2 f2 e2 d2 d2  | c2 c2 _1/4B2 A2 z2 e2 _7/8d2 d2  | \
w:   |   | 
c2 _1/4B2 c2 c6 z2 z4 B2 c2 _7/8d2 e2 d2 c2 d2  | 
w:   | 
c2 _7/8d2 e2 e2 f2 e2 d2 c2  | _1/4B2 c8 c2 _7/8d2 d2  | \
w:   |   | 
c4 _7/8d2 c _1/4B A2 B2 c2 B6 z2 d2 c2 c2 B2 B2  | 
w:   | 
A4 _7/8B2 A ^G ^1/4F2 G2 A2 G2  | \
w:   | 
z2 A2 _1/4B2 A4 B2 c2 B2  | _7/8d2 c2 _1/4B2 c3 B A4 z4 B2 c2 =d2 e2 d2 c2 d2  | 
w:   |   | 
c2 =d4 z2 c4 d2 e2  | f4 e2 e2 _7/8d2 d2 c2 z2  | \
w:   |   | 
c4 _7/8d2 d2 c4 _1/4B2 A2  | _1/4B2 G4 z2 c2 _7/8d2 d2 c4 B2 B4 A4 A2 z2  | 
w:   |   | 
_1/4B2 A2 G4 A2 B2 A2 c4 B A A8 |
w:   | 


